neru-light-classic/22x22/actions/account-reopen.svg

<svg xmlns="http://www.w3.org/2000/svg" width="22" height="22"><defs><style id="current-color-scheme" type="text/css">.ColorScheme-Text{color:#1e333d}</style></defs><path class="ColorScheme-Text" d="M6.5 3C5.669 3 5 3.669 5 4.5V5h12v-.5c0-.831-.669-1.5-1.5-1.5h-9zM5 7v2h12V7H5zm0 4v2h12v-2H5zm0 4v2h8a4 4 0 0 1 .541-2H5z" fill="currentColor"/><path class="ColorScheme-Text" d="M5 5v2h12V5H5zm0 4v2h12V9H5zm0 4v2h8.541A4 4 0 0 1 17 13H5zm0 4v.5c0 .831.669 1.5 1.5 1.5h7.041A4 4 0 0 1 13 17H5z" opacity=".3" fill="currentColor"/><path class="ColorScheme-Text" d="M15 3v10.541A4 4 0 0 1 17 13V4.5c0-.831-.669-1.5-1.5-1.5H15z" opacity=".3" fill="currentColor"/><path class="ColorScheme-Text" d="M17 14a3 3 0 0 0-3 3 3 3 0 0 0 3 3 3 3 0 0 0 3-3 3 3 0 0 0-3-3zm0 1a2 2 0 0 1 2 2 2 2 0 0 1-2 2 2 2 0 0 1-2-2 2 2 0 0 1 2-2z" fill="currentColor"/></svg>

<svg xmlns="http://www.w3.org/2000/svg" width="22" height="22" version="1.1">
 <defs>
  <style id="current-color-scheme" type="text/css">
   .ColorScheme-Text { color:#1e333d; } .ColorScheme-Highlight { color:#3fb7ff; }
  </style>
 </defs>
 <path style="fill:currentColor" class="ColorScheme-Text" d="M 6.5 3 C 5.669 3 5 3.669 5 4.5 L 5 5 L 17 5 L 17 4.5 C 17 3.669 16.331 3 15.5 3 L 6.5 3 z M 5 7 L 5 9 L 17 9 L 17 7 L 5 7 z M 5 11 L 5 13 L 17 13 L 17 11 L 5 11 z M 5 15 L 5 17 L 13 17 A 4 4 0 0 1 13.541016 15 L 5 15 z"/>
 <path style="opacity:0.3;fill:currentColor" class="ColorScheme-Text" d="M 5 5 L 5 7 L 17 7 L 17 5 L 5 5 z M 5 9 L 5 11 L 17 11 L 17 9 L 5 9 z M 5 13 L 5 15 L 13.541016 15 A 4 4 0 0 1 17 13 L 5 13 z M 5 17 L 5 17.5 C 5 18.331 5.669 19 6.5 19 L 13.541016 19 A 4 4 0 0 1 13 17 L 5 17 z"/>
 <path style="opacity:0.3;fill:currentColor" class="ColorScheme-Text" d="M 15 3 L 15 13.541016 A 4 4 0 0 1 17 13 L 17 11 L 17 9 L 17 7 L 17 5 L 17 4.5 C 17 3.669 16.331 3 15.5 3 L 15 3 z"/>
 <path style="fill:currentColor" class="ColorScheme-Text" d="M 17 14 A 3 3 0 0 0 14 17 A 3 3 0 0 0 17 20 A 3 3 0 0 0 20 17 A 3 3 0 0 0 17 14 z M 17 15 A 2 2 0 0 1 19 17 A 2 2 0 0 1 17 19 A 2 2 0 0 1 15 17 A 2 2 0 0 1 17 15 z"/>
</svg>
